public/cloud-icons/azure/iot/iot-solution-accelerator.svg

<?xml version="1.0" encoding="UTF-8" standalone="no"?>
<!-- Generated by Microsoft Visio, SVG Export IoT Solution Accelerator.svg Page-1 -->

<svg
   xmlns:dc="http://purl.org/dc/elements/1.1/"
   xmlns:cc="http://creativecommons.org/ns#"
   xmlns:rdf="http://www.w3.org/1999/02/22-rdf-syntax-ns#"
   xmlns:svg="http://www.w3.org/2000/svg"
   xmlns="http://www.w3.org/2000/svg"
   xmlns:sodipodi="http://sodipodi.sourceforge.net/DTD/sodipodi-0.dtd"
   xmlns:inkscape="http://www.inkscape.org/namespaces/inkscape"
   width="0.7086581in"
   height="0.78739887in"
   viewBox="0 0 51.02319 56.692941"
   xml:space="preserve"
   class="st7"
   version="1.1"
   id="svg94"
   sodipodi:docname="IoT Solution Accelerator.svg"
   style="font-size:12px;overflow:visible;color-interpolation-filters:sRGB;fill:none;fill-rule:evenodd;stroke-linecap:square;stroke-miterlimit:3"
   inkscape:version="0.92.5 (2060ec1f9f, 2020-04-08)"><metadata
   id="metadata100"><rdf:RDF><cc:Work
       rdf:about=""><dc:format>image/svg+xml</dc:format><dc:type
         rdf:resource="http://purl.org/dc/dcmitype/StillImage" /></cc:Work></rdf:RDF></metadata><defs
   id="defs98" /><sodipodi:namedview
   pagecolor="#ffffff"
   bordercolor="#666666"
   borderopacity="1"
   objecttolerance="10"
   gridtolerance="10"
   guidetolerance="10"
   inkscape:pageopacity="0"
   inkscape:pageshadow="2"
   inkscape:window-width="640"
   inkscape:window-height="480"
   id="namedview96"
   showgrid="false"
   inkscape:zoom="1.7326849"
   inkscape:cx="34.015599"
   inkscape:cy="22.748271"
   inkscape:window-x="0"
   inkscape:window-y="0"
   inkscape:window-maximized="0"
   inkscape:current-layer="svg94" />
	<style
   type="text/css"
   id="style2">
	<![CDATA[
		.st1 {fill:#2074bb;stroke:none;stroke-linecap:butt;stroke-width:11.4453}
		.st2 {fill:#ffffff;stroke:none;stroke-linecap:butt;stroke-width:11.4453}
		.st3 {fill:#c0dcef;stroke:none;stroke-linecap:butt;stroke-width:11.4453}
		.st4 {fill:#69abdb;stroke:none;stroke-linecap:butt;stroke-width:11.4453}
		.st5 {fill:#3b8fcd;stroke:none;stroke-linecap:butt;stroke-width:11.4453}
		.st6 {fill:#9bc7e6;stroke:none;stroke-linecap:butt;stroke-width:11.4453}
		.st7 {fill:none;fill-rule:evenodd;font-size:12px;overflow:visible;stroke-linecap:square;stroke-miterlimit:3}
	]]>
	</style>

	<g
   id="g92"
   transform="translate(-11.445585,-11.445328)">
		<title
   id="title4">Page-1</title>
		<g
   id="group21792-1"
   transform="translate(11.4453,-34.0157)">
			<title
   id="title6">IoT Solution Accelerator.21792</title>
			<g
   id="group21793-2">
				<title
   id="title8">layer1</title>
				<g
   id="shape21794-3"
   transform="translate(2.74169,-2.68913)">
					<title
   id="title10">path2</title>
					<path
   d="m 22.78,102.15 a 1.01844,0.999332 0 0 1 -0.507692,-0.1335 L 0.51,89.69 A 1.01539,0.996343 0 0 1 0.00231,88.827168 L 0,64.17 A 1.01539,0.996343 0 0 1 0.50769,63.307168 L 22.27,50.97 a 1.01539,0.996343 0 0 1 1.01538,0 L 45.05,63.3 a 1.01539,0.996343 0 0 1 0.50769,0.862832 L 45.56,88.83 a 1.01539,0.996343 0 0 1 -0.50769,0.862832 L 23.29,102.02 a 1.01844,0.999332 0 0 1 -0.50769,0.1335 z M 2.03,88.25 22.78,100.01 43.53,88.25 V 64.74 L 22.78,52.99 2.03,64.74 Z"
   class="st1"
   id="path12"
   inkscape:connector-curvature="0"
   style="fill:#2074bb;stroke:none;stroke-width:11.4453001;stroke-linecap:butt" />
				</g>
				<g
   id="shape21795-5"
   transform="translate(21.7651,-49.322)">
					<title
   id="title15">circle4</title>
					<ellipse
   cx="3.75594"
   cy="98.468498"
   rx="3.75594"
   ry="3.6854701"
   class="st1"
   id="ellipse17"
   style="fill:#2074bb;stroke:none;stroke-width:11.4453001;stroke-linecap:butt" />
				</g>
				<g
   id="shape21796-7"
   transform="translate(0,-36.9932)">
					<title
   id="title20">circle6</title>
					<ellipse
   cx="3.75594"
   cy="98.468498"
   rx="3.75594"
   ry="3.6854701"
   class="st1"
   id="ellipse22"
   style="fill:#2074bb;stroke:none;stroke-width:11.4453001;stroke-linecap:butt" />
				</g>
				<g
   id="shape21797-9"
   transform="translate(43.5117,-36.9932)">
					<title
   id="title25">circle8</title>
					<ellipse
   cx="3.75594"
   cy="98.468498"
   rx="3.75594"
   ry="3.6854701"
   class="st1"
   id="ellipse27"
   style="fill:#2074bb;stroke:none;stroke-width:11.4453001;stroke-linecap:butt" />
				</g>
				<g
   id="shape21798-11"
   transform="translate(43.5117,-12.3307)">
					<title
   id="title30">circle10</title>
					<ellipse
   cx="3.75594"
   cy="98.468498"
   rx="3.75594"
   ry="3.6854701"
   class="st1"
   id="ellipse32"
   style="fill:#2074bb;stroke:none;stroke-width:11.4453001;stroke-linecap:butt" />
				</g>
				<g
   id="shape21799-13"
   transform="translate(0,-12.3307)">
					<title
   id="title35">circle12</title>
					<ellipse
   cx="3.75594"
   cy="98.468498"
   rx="3.75594"
   ry="3.6854701"
   class="st1"
   id="ellipse37"
   style="fill:#2074bb;stroke:none;stroke-width:11.4453001;stroke-linecap:butt" />
				</g>
				<g
   id="shape21800-15"
   transform="translate(21.7712)">
					<title
   id="title40">circle14</title>
					<ellipse
   cx="3.75594"
   cy="98.468498"
   rx="3.75594"
   ry="3.6854701"
   class="st1"
   id="ellipse42"
   style="fill:#2074bb;stroke:none;stroke-width:11.4453001;stroke-linecap:butt" />
				</g>
				<g
   id="shape21801-17"
   transform="translate(12.6042,-15.6804)">
					<title
   id="title45">circle16</title>
					<ellipse
   cx="12.9077"
   cy="89.488403"
   rx="12.9077"
   ry="12.6655"
   class="st2"
   id="ellipse47"
   style="fill:#ffffff;stroke:none;stroke-width:11.4453001;stroke-linecap:butt" />
				</g>
				<g
   id="shape21802-19"
   transform="translate(15.6661,-14.6851)">
					<title
   id="title50">path18</title>
					<path
   d="M 9.84,102.15 A 13.9231,13.6619 0 1 1 23.77,88.49 13.9393,13.6778 0 0 1 9.84,102.15 Z m 0,-25.33 A 11.8923,11.6692 -180 1 0 21.74,88.49 11.9065,11.6831 -180 0 0 9.84,76.82 Z"
   class="st1"
   id="path52"
   inkscape:connector-curvature="0"
   style="fill:#2074bb;stroke:none;stroke-width:11.4453001;stroke-linecap:butt" />
				</g>
				<g
   id="shape21803-21"
   transform="translate(2.78635,-2.68913)">
					<title
   id="title55">path20</title>
					<path
   d="M 11.64,71 A 1.01032,0.991361 0 0 1 11.14651,70.874451 L 0.47,65.04 A 1.01573,0.996672 0 0 1 1.460013,63.29939 L 12.14,69.13 a 1.01539,0.996343 0 0 1 -0.49656,1.86615 z M 22.73,64.83 A 1.01539,0.996343 0 0 1 21.71458,63.833658 L 21.72,51.84 a 1.0154,0.996349 0 0 1 2.0308,0 l -8e-4,11.99 a 1.01539,0.996343 0 0 1 -1.01538,0.996342 z m 11.3,6 A 1.01539,0.996343 0 0 1 33.538543,68.96086 L 44.01,63.29 a 1.01553,0.99648 0 1 1 0.981877,1.7446 L 34.52,70.71 a 1.01235,0.993354 0 0 1 -0.490458,0.124532 z M 44.5,89.82 A 1.00727,0.988372 0 0 1 43.948638,89.660598 L 33.66,83.11 a 1.01539,0.996343 0 0 1 1.10472,-1.67186 L 45.05,87.99 a 1.01539,0.996343 0 0 1 -0.553399,1.83327 z m -21.77,12.33 a 1.01539,0.996343 0 0 1 -1.01542,-0.99635 L 21.72,89.51 a 1.0154,0.996349 0 0 1 2.0308,0 l -8e-4,11.65 a 1.01539,0.996343 0 0 1 -1.01538,0.99635 z M 0.97,89.82 A 1.01539,0.996343 0 0 1 0.395265,88.00168 L 10.53,81.19 a 1.01539,0.996343 0 1 1 1.1464,1.64396 L 1.54,89.65 A 1.00829,0.989369 0 0 1 0.968336,89.824354 Z M 22.72,77.49 a 1.015392,0.996345 0 0 1 0,-1.99269 L 31.55,75.5 a 1.015392,0.996345 0 0 1 0,1.99269 z"
   class="st1"
   id="path57"
   inkscape:connector-curvature="0"
   style="fill:#2074bb;stroke:none;stroke-width:11.4453001;stroke-linecap:butt" />
				</g>
				<g
   id="shape21804-23"
   transform="translate(23.9867,-26.8654)">
					<title
   id="title60">circle22</title>
					<ellipse
   cx="1.50887"
   cy="100.673"
   rx="1.50887"
   ry="1.48057"
   class="st1"
   id="ellipse62"
   style="fill:#2074bb;stroke:none;stroke-width:11.4453001;stroke-linecap:butt" />
				</g>
				<g
   id="shape21805-25"
   transform="translate(16.9338,-22.6379)">
					<title
   id="title65">path24</title>
					<path
   d="m 0,96.93 a 8.60241,8.44102 -180 0 0 2.5,5.22 L 4.82,99.87 A 5.45571,5.35335 0 0 1 3.2,96.93 Z"
   class="st3"
   id="path67"
   inkscape:connector-curvature="0"
   style="fill:#c0dcef;stroke:none;stroke-width:11.4453001;stroke-linecap:butt" />
				</g>
				<g
   id="shape21806-27"
   transform="translate(19.4114,-32.5107)">
					<title
   id="title70">path26</title>
					<path
   d="M 5.61,97.58 A 8.60038,8.43903 -180 0 0 0,100.05 l 2.15,2.1 a 5.44759,5.34538 0 0 1 3.46,-1.63 z"
   class="st4"
   id="path72"
   inkscape:connector-curvature="0"
   style="fill:#69abdb;stroke:none;stroke-width:11.4453001;stroke-linecap:butt" />
				</g>
				<g
   id="shape21807-29"
   transform="translate(26.0348,-32.5107)">
					<title
   id="title75">path28</title>
					<path
   d="M 5.61,100.05 A 8.60038,8.43903 -180 0 0 0,97.58 v 2.94 a 5.44759,5.34538 0 0 1 3.46,1.63 z"
   class="st5"
   id="path77"
   inkscape:connector-curvature="0"
   style="fill:#3b8fcd;stroke:none;stroke-width:11.4453001;stroke-linecap:butt" />
				</g>
				<g
   id="shape21808-31"
   transform="translate(16.9054,-28.8601)">
					<title
   id="title80">path30</title>
					<path
   d="m 1.84,97.15 a 8.58312,8.42209 -180 0 0 -1.84,5 h 3.14 a 5.44759,5.34538 0 0 1 0.88,-2.86 z"
   class="st6"
   id="path82"
   inkscape:connector-curvature="0"
   style="fill:#9bc7e6;stroke:none;stroke-width:11.4453001;stroke-linecap:butt" />
				</g>
				<g
   id="shape21809-33"
   transform="translate(30.1309,-30.4642)">
					<title
   id="title85">path32</title>
					<path
   d="M 3.81,102.15 A 8.58008,8.4191 -180 0 0 2.18,98.75 L 0,100.89 a 5.50953,5.40616 0 0 1 0.61,1.26 z"
   class="st1"
   id="path87"
   inkscape:connector-curvature="0"
   style="fill:#2074bb;stroke:none;stroke-width:11.4453001;stroke-linecap:butt" />
				</g>
			</g>
		</g>
	</g>
</svg>

<svg xmlns="http://www.w3.org/2000/svg" xml:space="preserve" width="68.031" height="75.59" style="font-size:12px;overflow:visible;color-interpolation-filters:sRGB;fill-rule:evenodd;stroke-linecap:square;stroke-miterlimit:3" viewBox="0 0 51.023 56.693"><g transform="translate(-11.446 -11.445)"><title>Page-1</title><g transform="translate(11.445 -34.016)"><title>IoT Solution Accelerator.21792</title><title>layer1</title><g transform="translate(2.742 -2.69)"><title>path2</title><path d="M22.78 102.15a1.018 1 0 0 1-.508-.133L.51 89.69a1.015.996 0 0 1-.508-.863L0 64.17a1.015.996 0 0 1 .508-.863L22.27 50.97a1.015.996 0 0 1 1.015 0L45.05 63.3a1.015.996 0 0 1 .508.863l.002 24.667a1.015.996 0 0 1-.508.863L23.29 102.02a1.018 1 0 0 1-.508.134zM2.03 88.25l20.75 11.76 20.75-11.76V64.74L22.78 52.99 2.03 64.74Z" style="fill:#2074bb;stroke:none;stroke-width:11.4453001;stroke-linecap:butt"/></g><g transform="translate(21.765 -49.322)"><title>circle4</title><ellipse cx="3.756" cy="98.468" rx="3.756" ry="3.685" style="fill:#2074bb;stroke:none;stroke-width:11.4453001;stroke-linecap:butt"/></g><g transform="translate(0 -36.993)"><title>circle6</title><ellipse cx="3.756" cy="98.468" rx="3.756" ry="3.685" style="fill:#2074bb;stroke:none;stroke-width:11.4453001;stroke-linecap:butt"/></g><g transform="translate(43.512 -36.993)"><title>circle8</title><ellipse cx="3.756" cy="98.468" rx="3.756" ry="3.685" style="fill:#2074bb;stroke:none;stroke-width:11.4453001;stroke-linecap:butt"/></g><g transform="translate(43.512 -12.33)"><title>circle10</title><ellipse cx="3.756" cy="98.468" rx="3.756" ry="3.685" style="fill:#2074bb;stroke:none;stroke-width:11.4453001;stroke-linecap:butt"/></g><g transform="translate(0 -12.33)"><title>circle12</title><ellipse cx="3.756" cy="98.468" rx="3.756" ry="3.685" style="fill:#2074bb;stroke:none;stroke-width:11.4453001;stroke-linecap:butt"/></g><g transform="translate(21.771)"><title>circle14</title><ellipse cx="3.756" cy="98.468" rx="3.756" ry="3.685" style="fill:#2074bb;stroke:none;stroke-width:11.4453001;stroke-linecap:butt"/></g><g transform="translate(12.604 -15.68)"><title>circle16</title><ellipse cx="12.908" cy="89.488" rx="12.908" ry="12.665" style="fill:#fff;stroke:none;stroke-width:11.4453001;stroke-linecap:butt"/></g><g transform="translate(15.666 -14.685)"><title>path18</title><path d="M9.84 102.15a13.923 13.662 0 1 1 13.93-13.66 13.94 13.678 0 0 1-13.93 13.66m0-25.33a11.892 11.67-180 1 0 11.9 11.67 11.907 11.683-180 0 0-11.9-11.67" style="fill:#2074bb;stroke:none;stroke-width:11.4453001;stroke-linecap:butt"/></g><g transform="translate(2.786 -2.69)"><title>path20</title><path d="M11.64 71a1.01.991 0 0 1-.493-.126L.47 65.04a1.016.997 0 0 1 .99-1.74l10.68 5.83a1.015.996 0 0 1-.497 1.866zm11.09-6.17a1.015.996 0 0 1-1.015-.996l.005-11.994a1.015.996 0 0 1 2.03 0v11.99a1.015.996 0 0 1-1.015.996zm11.3 6a1.015.996 0 0 1-.491-1.87l10.471-5.67a1.016.996 0 1 1 .982 1.745L34.52 70.71a1.012.993 0 0 1-.49.125zM44.5 89.82a1.007.988 0 0 1-.551-.16L33.66 83.11a1.015.996 0 0 1 1.105-1.672L45.05 87.99a1.015.996 0 0 1-.553 1.833zm-21.77 12.33a1.015.996 0 0 1-1.015-.996l.005-11.644a1.015.996 0 0 1 2.03 0v11.65a1.015.996 0 0 1-1.015.996zM.97 89.82a1.015.996 0 0 1-.575-1.818L10.53 81.19a1.015.996 0 1 1 1.146 1.644L1.54 89.65a1.008.99 0 0 1-.572.174Zm21.75-12.33a1.015.996 0 0 1 0-1.993l8.83.003a1.015.996 0 0 1 0 1.993z" style="fill:#2074bb;stroke:none;stroke-width:11.4453001;stroke-linecap:butt"/></g><g transform="translate(23.987 -26.865)"><title>circle22</title><ellipse cx="1.509" cy="100.673" rx="1.509" ry="1.481" style="fill:#2074bb;stroke:none;stroke-width:11.4453001;stroke-linecap:butt"/></g><g transform="translate(16.934 -22.638)"><title>path24</title><path d="M0 96.93a8.602 8.441-180 0 0 2.5 5.22l2.32-2.28a5.456 5.353 0 0 1-1.62-2.94Z" style="fill:#c0dcef;stroke:none;stroke-width:11.4453001;stroke-linecap:butt"/></g><g transform="translate(19.411 -32.51)"><title>path26</title><path d="M5.61 97.58A8.6 8.439-180 0 0 0 100.05l2.15 2.1a5.448 5.345 0 0 1 3.46-1.63z" style="fill:#69abdb;stroke:none;stroke-width:11.4453001;stroke-linecap:butt"/></g><g transform="translate(26.035 -32.51)"><title>path28</title><path d="M5.61 100.05A8.6 8.439-180 0 0 0 97.58v2.94a5.448 5.345 0 0 1 3.46 1.63z" style="fill:#3b8fcd;stroke:none;stroke-width:11.4453001;stroke-linecap:butt"/></g><g transform="translate(16.905 -28.86)"><title>path30</title><path d="M1.84 97.15a8.583 8.422-180 0 0-1.84 5h3.14a5.448 5.345 0 0 1 .88-2.86z" style="fill:#9bc7e6;stroke:none;stroke-width:11.4453001;stroke-linecap:butt"/></g><g transform="translate(30.13 -30.464)"><title>path32</title><path d="M3.81 102.15a8.58 8.42-180 0 0-1.63-3.4L0 100.89a5.51 5.406 0 0 1 .61 1.26z" style="fill:#2074bb;stroke:none;stroke-width:11.4453001;stroke-linecap:butt"/></g></g></g></svg>
